X: 1
P: The Dundee City Police Pipe Band
C: by Jimmy Shand
C: from Scots Guards II, arr. T. Traub 4-28-2005
M: 6/8
L: 1/8
R: jig
K: D
|: A|d>fe d2 A|"G"B<dA B2 d|"D"A>BA A>af|"E"f>ed "A"e2 A|"D"d>fe "D"d2 A|"G"B<dA B2 d|"D"A>af "A"e>de|"D"d3 d2 :|
g |"D"a>gf "A"e>de|"D"f<aA "G"B2 d|"D"A>BA A>af|"E7"f>ed "A"e2 g|"D"a>gf "A"e>de|"D"f<aA "G"B2 d|"D"A>af "A"e>de|"D"d3 d2 ||
g |"D"a>gf "A"e>de|"D"f<aA "G"B2 d|"D"A>BA A>af|"E7"f>ed "A"e2 A|"D"d>fe d2 A|"G"B<dA B2 d|"A"A>af e>de|"D"d3 d2 ||
|: A|"D"d>fe f>AA|d>fA "G"B2 d|"D"A>fe f2 a|"E7"f>ed "A"e2 A|"D"d>fe f>AA|"D"d>fA "G"B2 d|"D"A>af "A"e>de|"D"d3 d2 :|
g|"D"f>aa A>aa|f<aA "G"B2 d|"G"G>BB "D"A>dd|"D"f<af "A"e2 g| "D"f>aa A>aa|f<aA "G"B2 d|"D"A>af "A"e>de|"D"d3 d2 ||
g|"D"f>aa A>aa|f<aA "G"B2 d|"G"G>BB "D"A>dd|"D"f<af "A"e2 A|"D"d>fe f2 A|d>fA "G"B2 d|"D"A>af "A"e>de|"D"d3 d2 |]
